svg/media/music_line.svg

<?xml version="1.0" encoding="UTF-8"?>
<svg width="24px" height="24px" viewBox="0 0 24 24" version="1.1" xmlns="http://www.w3.org/2000/svg" xmlns:xlink="http://www.w3.org/1999/xlink">
    <title>music_line</title>
    <g id="页面-1" stroke="none" stroke-width="1" fill="none" fill-rule="evenodd">
        <g id="Media" transform="translate(-672.000000, 0.000000)" fill-rule="nonzero">
            <g id="music_line" transform="translate(672.000000, 0.000000)">
                 <path d="M24,0 L24,24 L0,24 L0,0 L24,0 Z M12.5934901,23.257841 L12.5819402,23.2595131 L12.5108777,23.2950439 L12.4918791,23.2987469 L12.4918791,23.2987469 L12.4767152,23.2950439 L12.4056548,23.2595131 C12.3958229,23.2563662 12.3870493,23.2590235 12.3821421,23.2649074 L12.3780323,23.275831 L12.360941,23.7031097 L12.3658947,23.7234994 L12.3769048,23.7357139 L12.4804777,23.8096931 L12.4953491,23.8136134 L12.4953491,23.8136134 L12.5071152,23.8096931 L12.6106902,23.7357139 L12.6232938,23.7196733 L12.6232938,23.7196733 L12.6266527,23.7031097 L12.609561,23.275831 C12.6075724,23.2657013 12.6010112,23.2592993 12.5934901,23.257841 L12.5934901,23.257841 Z M12.8583906,23.1452862 L12.8445485,23.1473072 L12.6598443,23.2396597 L12.6498822,23.2499052 L12.6498822,23.2499052 L12.6471943,23.2611114 L12.6650943,23.6906389 L12.6699349,23.7034178 L12.6699349,23.7034178 L12.678386,23.7104931 L12.8793402,23.8032389 C12.8914285,23.8068999 12.9022333,23.8029875 12.9078286,23.7952264 L12.9118235,23.7811639 L12.8776777,23.1665331 C12.8752882,23.1545897 12.8674102,23.1470016 12.8583906,23.1452862 L12.8583906,23.1452862 Z M12.1430473,23.1473072 C12.1332178,23.1423925 12.1221763,23.1452606 12.1156365,23.1525954 L12.1099173,23.1665331 L12.0757714,23.7811639 C12.0751323,23.7926639 12.0828099,23.8018602 12.0926481,23.8045676 L12.108256,23.8032389 L12.3092106,23.7104931 L12.3186497,23.7024347 L12.3186497,23.7024347 L12.3225043,23.6906389 L12.340401,23.2611114 L12.337245,23.2485176 L12.337245,23.2485176 L12.3277531,23.2396597 L12.1430473,23.1473072 Z" id="MingCute" fill-rule="nonzero"></path>
                <path d="M21,5.18043 L21,17 C21,19.2091 19.2091,21 17,21 C14.7909,21 13,19.2091 13,17 C13,14.7909 14.7909,13 17,13 C17.7286,13 18.4117,13.1948 19,13.5351 L19,9.18052 L9,10.8472 L9,18 C9,18.0592 8.99485,18.1172 8.98498,18.1736 C8.99492,18.2811 9,18.3899 9,18.5 C9,20.433 7.433,22 5.5,22 C3.567,22 2,20.433 2,18.5 C2,16.567 3.567,15 5.5,15 C6.0368,15 6.54537,15.1208 7,15.3368 L7,6.84709 C7,5.86942 7.70682,5.03503 8.6712,4.87431 L18.6712,3.20764 C19.8903,3.00446 21,3.94455 21,5.18043 Z M5.5,17 C4.67157,17 4,17.6716 4,18.5 C4,19.3284 4.67157,20 5.5,20 C6.32843,20 7,19.3284 7,18.5 C7,17.6716 6.32843,17 5.5,17 Z M17,15 C15.8954,15 15,15.8954 15,17 C15,18.1046 15.8954,19 17,19 C18.1046,19 19,18.1046 19,17 C19,15.8954 18.1046,15 17,15 Z M19,5.18043 L9,6.84709 L9,8.8196 L19,7.15293 L19,5.18043 Z" id="形状" fill="#09244B"></path>
            </g>
        </g>
    </g>
</svg>

<svg xmlns="http://www.w3.org/2000/svg" width="24" height="24"><g fill="none" fill-rule="nonzero"><path d="M24 0v24H0V0h24ZM12.593 23.258l-.011.002-.071.035-.02.004-.014-.004-.071-.035c-.01-.004-.019-.001-.024.005l-.004.01-.017.428.005.02.01.013.104.074.015.004.012-.004.104-.074.012-.016.004-.017-.017-.427c-.002-.01-.009-.017-.017-.018Zm.265-.113-.013.002-.185.093-.01.01-.003.011.018.43.005.012.008.007.201.093c.012.004.023 0 .029-.008l.004-.014-.034-.614c-.003-.012-.01-.02-.02-.022Zm-.715.002a.023.023 0 0 0-.027.006l-.006.014-.034.614c0 .012.007.02.017.024l.015-.002.201-.093.01-.008.004-.011.017-.43-.003-.012-.01-.01-.184-.092Z"/><path fill="#09244B" d="M21 5.18V17a4 4 0 1 1-2-3.465V9.181L9 10.847V18c0 .06-.005.117-.015.174A3.5 3.5 0 1 1 7 15.337v-8.49a2 2 0 0 1 1.671-1.973l10-1.666A2 2 0 0 1 21 5.18ZM5.5 17a1.5 1.5 0 1 0 0 3 1.5 1.5 0 0 0 0-3ZM17 15a2 2 0 1 0 0 4 2 2 0 0 0 0-4Zm2-9.82L9 6.847V8.82l10-1.667V5.18Z"/></g></svg>
